svgs/sharp-light/diagram-cells.svg

<svg xmlns="http://www.w3.org/2000/svg" viewBox="0 0 512 512"><!--! Font Awesome Pro 6.6.0 by @fontawesome - https://fontawesome.com License - https://fontawesome.com/license (Commercial License) Copyright 2024 Fonticons, Inc. --><path d="M480 192L32 192 32 64l448 0 0 128zm32 32l0-32 0-128 0-32-32 0L32 32 0 32 0 64 0 192l0 32 32 0 448 0 32 0zm0 240l0-160 0-16-16 0L16 288 0 288l0 16L0 464l0 16 16 0 480 0 16 0 0-16zM32 448l0-128 448 0 0 128L32 448z"/></svg>

<svg xmlns="http://www.w3.org/2000/svg" viewBox="0 0 512 512"><!--! Font Awesome Pro 6.4.2 by @fontawesome - https://fontawesome.com License - https://fontawesome.com/license (Commercial License) Copyright 2023 Fonticons, Inc. --><path d="M480 192L32 192 32 64l448 0V192zm32 32V192 64 32H480 32 0V64 192v32H32l448 0h32zm0 240V304 288H496L16 288H0v16V464v16H16l480 0h16V464zM32 448l0-128 448 0V448L32 448z"/></svg>
